Newaita/actions/symbolic/focus-legacy-systray-symbolic.svg

<svg height="16" viewBox="0 0 16 16" width="16" xmlns="http://www.w3.org/2000/svg"><g fill="#424242"><path d="m10.585938 1.449219c1.464843 0 2.644531 1.179687 2.644531 2.644531v10.585938h.992187v-10.585938c0-1.464844-1.179687-2.644531-2.644531-2.644531zm0 0"/><path d="m0 1.449219v13.230469h10.253906v-10.585938c0-1.464844-1.179687-2.644531-2.644531-2.644531zm3.636719 3.96875h.019531c.066406 0 .132812.023437.1875.0625l3.308594 2.3125c.191406.136719.191406.425781 0 .5625l-3.308594 2.316406c-.226562.160156-.539062-.003906-.539062-.28125v-4.628906c0-.1875.148437-.339844.332031-.34375zm0 0"/><path d="m8.601562 1.449219c1.464844 0 2.644532 1.179687 2.644532 2.644531v10.585938h.992187v-10.585938c0-1.464844-1.179687-2.644531-2.644531-2.644531zm0 0"/></g></svg>

<?xml version="1.0" encoding="UTF-8"?>
<svg xmlns="http://www.w3.org/2000/svg" xmlns:xlink="http://www.w3.org/1999/xlink" width="16px" height="16px" viewBox="0 0 16 16" version="1.1">
<g id="surface1">
<path style=" stroke:none;fill-rule:nonzero;fill:rgb(25.882354%,25.882354%,25.882354%);fill-opacity:1;" d="M 10.585938 1.449219 C 12.050781 1.449219 13.230469 2.628906 13.230469 4.09375 L 13.230469 14.679688 L 14.222656 14.679688 L 14.222656 4.09375 C 14.222656 2.628906 13.042969 1.449219 11.578125 1.449219 Z M 10.585938 1.449219 "/>
<path style=" stroke:none;fill-rule:nonzero;fill:rgb(25.882354%,25.882354%,25.882354%);fill-opacity:1;" d="M 0 1.449219 L 0 14.679688 L 10.253906 14.679688 L 10.253906 4.09375 C 10.253906 2.628906 9.074219 1.449219 7.609375 1.449219 Z M 3.636719 5.417969 C 3.644531 5.417969 3.648438 5.417969 3.65625 5.417969 C 3.722656 5.417969 3.789062 5.441406 3.84375 5.480469 L 7.152344 7.792969 C 7.34375 7.929688 7.34375 8.21875 7.152344 8.355469 L 3.84375 10.671875 C 3.617188 10.832031 3.304688 10.667969 3.304688 10.390625 L 3.304688 5.761719 C 3.304688 5.574219 3.453125 5.421875 3.636719 5.417969 Z M 3.636719 5.417969 "/>
<path style=" stroke:none;fill-rule:nonzero;fill:rgb(25.882354%,25.882354%,25.882354%);fill-opacity:1;" d="M 8.601562 1.449219 C 10.066406 1.449219 11.246094 2.628906 11.246094 4.09375 L 11.246094 14.679688 L 12.238281 14.679688 L 12.238281 4.09375 C 12.238281 2.628906 11.058594 1.449219 9.59375 1.449219 Z M 8.601562 1.449219 "/>
</g>
</svg>
